svg/color/hub.svg

<?xml version="1.0" encoding="UTF-8" ?>
<!DOCTYPE svg PUBLIC "-//W3C//DTD SVG 1.1//EN" "http://www.w3.org/Graphics/SVG/1.1/DTD/svg11.dtd">
<svg width="250pt" height="250pt" viewBox="0 0 250 250" version="1.1" xmlns="http://www.w3.org/2000/svg">
<g id="#ffffffff">
<path fill="#ffffff" opacity="1.00" d=" M 0.00 0.00 L 116.64 0.00 C 83.28 2.67 50.83 18.50 29.45 44.45 C 11.97 64.76 1.91 90.96 0.00 117.60 L 0.00 0.00 Z" />
<path fill="#ffffff" opacity="1.00" d=" M 132.41 0.00 L 250.00 0.00 L 250.00 116.64 C 247.32 82.80 231.02 49.93 204.47 28.54 C 184.32 11.59 158.58 1.88 132.41 0.00 Z" />
<path fill="#ffffff" opacity="1.00" d=" M 67.49 76.93 C 67.30 71.92 71.85 67.01 76.99 67.49 C 81.33 67.83 85.58 71.48 85.40 76.08 C 85.49 89.32 85.39 102.56 85.44 115.80 C 102.63 115.70 119.81 115.82 137.00 115.74 C 139.65 115.74 142.32 115.71 144.94 116.20 C 149.52 116.72 153.07 121.45 152.51 125.97 C 152.27 129.08 149.99 131.75 147.36 133.25 C 144.01 134.23 140.47 134.26 137.00 134.26 C 119.82 134.20 102.64 134.28 85.46 134.21 C 85.36 147.45 85.52 160.69 85.39 173.92 C 85.52 177.85 82.26 180.95 78.82 182.24 C 73.28 183.86 67.07 178.83 67.50 173.06 C 67.48 141.02 67.50 108.97 67.49 76.93 Z" />
<path fill="#ffffff" opacity="1.00" d=" M 171.18 67.77 C 176.73 66.08 182.90 71.18 182.49 76.94 C 182.52 108.98 182.49 141.03 182.50 173.07 C 182.61 176.53 180.53 179.98 177.45 181.56 C 172.20 184.57 164.52 180.17 164.60 174.06 C 164.47 142.71 164.62 111.36 164.53 80.01 C 164.55 78.01 164.48 75.99 164.84 74.02 C 165.70 71.02 168.35 68.84 171.18 67.77 Z" />
<path fill="#ffffff" opacity="1.00" d=" M 221.00 205.02 C 238.21 184.78 248.12 158.82 250.00 132.41 L 250.00 250.00 L 133.38 250.00 C 147.27 248.52 161.14 245.61 174.00 240.02 C 192.06 232.18 208.55 220.35 221.00 205.02 Z" />
<path fill="#ffffff" opacity="1.00" d=" M 0.00 133.37 C 2.67 166.97 18.74 199.62 44.99 221.00 C 65.22 238.24 91.18 248.10 117.59 250.00 L 0.00 250.00 L 0.00 133.37 Z" />
</g>
<g id="#1058fbff">
<path fill="#1058fb" opacity="1.00" d=" M 116.64 0.00 L 132.41 0.00 C 158.58 1.88 184.32 11.59 204.47 28.54 C 231.02 49.93 247.32 82.80 250.00 116.64 L 250.00 132.41 C 248.12 158.82 238.21 184.78 221.00 205.02 C 208.55 220.35 192.06 232.18 174.00 240.02 C 161.14 245.61 147.27 248.52 133.38 250.00 L 117.59 250.00 C 91.18 248.10 65.22 238.24 44.99 221.00 C 18.74 199.62 2.67 166.97 0.00 133.37 L 0.00 117.60 C 1.91 90.96 11.97 64.76 29.45 44.45 C 50.83 18.50 83.28 2.67 116.64 0.00 M 67.49 76.93 C 67.50 108.97 67.48 141.02 67.50 173.06 C 67.07 178.83 73.28 183.86 78.82 182.24 C 82.26 180.95 85.52 177.85 85.39 173.92 C 85.52 160.69 85.36 147.45 85.46 134.21 C 102.64 134.28 119.82 134.20 137.00 134.26 C 140.47 134.26 144.01 134.23 147.36 133.25 C 149.99 131.75 152.27 129.08 152.51 125.97 C 153.07 121.45 149.52 116.72 144.94 116.20 C 142.32 115.71 139.65 115.74 137.00 115.74 C 119.81 115.82 102.63 115.70 85.44 115.80 C 85.39 102.56 85.49 89.32 85.40 76.08 C 85.58 71.48 81.33 67.83 76.99 67.49 C 71.85 67.01 67.30 71.92 67.49 76.93 M 171.18 67.77 C 168.35 68.84 165.70 71.02 164.84 74.02 C 164.48 75.99 164.55 78.01 164.53 80.01 C 164.62 111.36 164.47 142.71 164.60 174.06 C 164.52 180.17 172.20 184.57 177.45 181.56 C 180.53 179.98 182.61 176.53 182.50 173.07 C 182.49 141.03 182.52 108.98 182.49 76.94 C 182.90 71.18 176.73 66.08 171.18 67.77 Z" />
</g>
</svg>

<?xml version="1.0" encoding="utf-8"?>
<!-- Generator: Adobe Illustrator 26.0.3, SVG Export Plug-In . SVG Version: 6.00 Build 0)  -->
<svg version="1.1" id="Layer_1" xmlns="http://www.w3.org/2000/svg" xmlns:xlink="http://www.w3.org/1999/xlink" x="0px" y="0px"
	 viewBox="0 0 250 250" style="enable-background:new 0 0 250 250;" xml:space="preserve">
<style type="text/css">
	.st0{fill:#FFFFFF;}
	.st1{fill:#1058FB;}
</style>
<g id="_x23_ffffffff">
	<path class="st0" d="M67.5,76.9c-0.2-5,4.4-9.9,9.5-9.4c4.3,0.3,8.6,4,8.4,8.6c0.1,13.2,0,26.5,0,39.7c17.2-0.1,34.4,0,51.6-0.1
		c2.6,0,5.3,0,7.9,0.5c4.6,0.5,8.1,5.2,7.6,9.8c-0.2,3.1-2.5,5.8-5.1,7.3c-3.4,1-6.9,1-10.4,1c-17.2-0.1-34.4,0-51.5,0
		c-0.1,13.2,0.1,26.5-0.1,39.7c0.1,3.9-3.1,7-6.6,8.3c-5.5,1.6-11.8-3.4-11.3-9.2C67.5,141,67.5,109,67.5,76.9z"/>
	<path class="st0" d="M171.2,67.8c5.6-1.7,11.7,3.4,11.3,9.2c0,32,0,64.1,0,96.1c0.1,3.5-2,6.9-5.1,8.5c-5.2,3-12.9-1.4-12.8-7.5
		c-0.1-31.3,0-62.7-0.1-94c0-2-0.1-4,0.3-6C165.7,71,168.4,68.8,171.2,67.8z"/>
</g>
<g id="_x23_1058fbff">
	<path class="st1" d="M116.6,0h15.8c26.2,1.9,51.9,11.6,72.1,28.5c26.6,21.4,42.9,54.3,45.5,88.1v15.8c-1.9,26.4-11.8,52.4-29,72.6
		c-12.4,15.3-28.9,27.2-47,35c-12.9,5.6-26.7,8.5-40.6,10h-15.8c-26.4-1.9-52.4-11.8-72.6-29c-26.3-21.4-42.3-54-45-87.6v-15.8
		C1.9,91,12,64.8,29.5,44.5C50.8,18.5,83.3,2.7,116.6,0 M67.5,76.9c0,32,0,64.1,0,96.1c-0.4,5.8,5.8,10.8,11.3,9.2
		c3.4-1.3,6.7-4.4,6.6-8.3c0.1-13.2,0-26.5,0.1-39.7c17.2,0.1,34.4,0,51.5,0c3.5,0,7,0,10.4-1c2.6-1.5,4.9-4.2,5.1-7.3
		c0.6-4.5-3-9.2-7.6-9.8c-2.6-0.5-5.3-0.5-7.9-0.5c-17.2,0.1-34.4,0-51.6,0.1c-0.1-13.2,0-26.5,0-39.7c0.2-4.6-4.1-8.2-8.4-8.6
		C71.8,67,67.3,71.9,67.5,76.9 M171.2,67.8c-2.8,1.1-5.5,3.2-6.3,6.2c-0.4,2-0.3,4-0.3,6c0.1,31.3-0.1,62.7,0.1,94
		c-0.1,6.1,7.6,10.5,12.8,7.5c3.1-1.6,5.2-5,5.1-8.5c0-32,0-64.1,0-96.1C182.9,71.2,176.7,66.1,171.2,67.8z"/>
</g>
</svg>
